X: 11003
T: Drunken Sailor's, The
R: hornpipe
M: 4/4
K: Gdorian
DGGF GABc|dcBA GFDE|F2 FE FGAB|cAFA dcBA|
GDB,D GABc|dcBA GFDE|F2 fe dcBA|ABGG G4:|
ABGA Bcde|fdBd cBAG|F2 cF dFcF|F2 cF dFcF|
ABGA Bcde|fdBd cBAG|G2 gf dcBA|ABGG G4:|
gdg/a/b gdg/a/b|fcf/g/a fcf/g/a|gdg/a/b gdg/a/b|fdcA ddcA|
B4 A4|B4 c4|df (3efg fdcA|ABGG G4:|
DGAd DGAd|DFAc DFAc|DGAd DGAd|c2 AF CFAc|
GBdB GBdB|c2 AF CFAc|df (3efg fdcA|BG (3AGF G4:|

